X:4
T:Petit Branle
S:http://www.fourwinds.demon.nl/branles.htm
Z:Jack Campin <http://www.campin.me.uk/> 2002
M:C|
L:1/8
K:D
d2cB A2d2|cdef d2d2|d2cB A2d2|cdef d4:|
d2ef g2f2|e2d2 e2cd|e2e2 e2cd|edef e4 |
ddcB c4  |ddcB c3 B|ABcd e2f2|e3 d d4:|
